<?xml version="1.0" encoding="UTF-8"?>
<map version="1.10" tiledversion="1.12.2" orientation="orthogonal" renderorder="right-down" width="30" height="20" tilewidth="16" tileheight="16" infinite="0" nextlayerid="6" nextobjectid="3">
 <tileset firstgid="1" source="../Downloads/kenney_1-bit-pack/Tilemap/tileset_colored.tsx"/>
 <tileset firstgid="1025" source="Kenny1-bit.tsx"/>
 <layer id="1" name="terrain" width="30" height="20">
  <properties>
   <property name="material_name" value="wood_floor"/>
  </properties>
  <data encoding="csv">
1025,1025,1025,1025,1025,1025,1025,1025,1025,1025,1025,1025,1025,1025,1025,1025,1025,1025,1025,1025,1025,1025,1025,1025,1025,1025,1025,1025,1025,1025,
1025,1025,1025,1025,1025,1025,1025,1025,1025,1025,1025,1025,1025,1025,1025,1025,1025,1025,1025,1025,1025,1025,1025,1025,1025,1025,1025,1025,1025,1025,
1025,1025,1025,1025,1025,1025,1025,1025,1025,1025,1025,1025,1025,1025,1025,1025,1025,1025,1025,1025,1025,1025,1025,1025,1025,1025,1025,1025,1025,1025,
1025,1025,1025,1025,1025,1025,1025,1025,1025,1025,1025,1025,1025,1025,1025,1025,1025,1025,1025,1025,1025,1025,1025,1025,1025,1025,1025,1025,1025,1025,
1025,1025,1025,1025,1025,1025,1613,1566,1566,1566,1566,1566,1566,1566,1566,1566,1566,1566,1613,1025,1025,1025,1025,1025,1025,1025,1025,1025,1025,1025,
1025,1025,1025,1025,1025,1025,1662,1662,1662,1662,1662,1662,1662,1662,1662,1662,1662,1662,1662,1025,1025,1025,1025,1025,1025,1025,1025,1025,1025,1025,
1025,1025,1025,1025,1025,1025,1662,1724,1724,1724,1662,1025,1025,1025,1025,1025,1025,1025,1662,1025,1025,1025,1025,1025,1025,1025,1025,1025,1025,1025,
1025,1025,1025,1025,1025,1025,1662,1724,1724,1724,1662,1025,1025,1025,1030,1030,1030,1025,1662,1025,1025,1025,1025,1025,1025,1025,1025,1025,1025,1025,
1025,1025,1025,1025,1025,1025,1662,1724,1724,1724,1662,1025,1025,1025,1030,1030,1030,1025,1662,1025,1025,1025,1025,1025,1025,1025,1025,1025,1025,1025,
1025,1025,1025,1025,1025,1025,1662,1724,1724,1724,1662,1025,1025,1025,1030,1030,1030,1025,1662,1025,1025,1025,1025,1025,1025,1025,1025,1025,1025,1025,
1025,1025,1025,1025,1025,1025,1662,1662,1082,1662,1662,1025,1025,1025,1025,1025,1025,1025,1662,1025,1025,1025,1025,1025,1025,1025,1025,1025,1025,1025,
1025,1025,1025,1025,1025,1025,1662,1031,1082,1026,1030,1031,1025,1025,1025,1025,1025,1025,1662,1025,1025,1025,1025,1025,1025,1025,1025,1025,1025,1025,
1025,1025,1025,1025,1025,1025,1662,1031,1082,1030,1195,1195,1025,1025,1025,1025,1025,1025,1662,1025,1025,1025,1025,1025,1025,1025,1025,1025,1025,1025,
1025,1025,1025,1025,1025,1025,1662,1031,1082,1030,1195,1195,1025,1025,1025,1025,1025,1025,1662,1025,1025,1025,1025,1025,1025,1025,1025,1025,1025,1025,
1025,1025,1025,1025,1025,1025,1662,1027,1082,1195,1195,1195,1025,1025,1025,1025,1025,1025,1662,1025,1025,1025,1025,1025,1025,1025,1025,1025,1025,1025,
1025,1025,1025,1025,1025,1025,1613,1566,1566,1566,1566,1566,1566,1566,1566,1566,1566,1566,1613,1025,1025,1025,1025,1025,1025,1025,1025,1025,1025,1025,
1025,1025,1025,1025,1025,1025,1662,1662,1662,1663,1662,1662,1666,1662,1662,1663,1662,1662,1662,1025,1025,1025,1025,1025,1025,1025,1025,1025,1025,1025,
1025,1025,1025,1025,1025,1025,1025,1025,1025,1025,1025,1025,1025,1025,1025,1025,1025,1025,1025,1025,1025,1025,1025,1025,1025,1025,1025,1025,1025,1025,
1025,1025,1025,1025,1025,1025,1025,1025,1025,1025,1025,1025,1025,1025,1025,1025,1025,1025,1025,1025,1025,1025,1025,1025,1025,1025,1025,1025,1025,1025,
1025,1025,1025,1025,1025,1025,1025,1025,1025,1025,1025,1025,1025,1025,1025,1025,1025,1025,1025,1025,1025,1025,1025,1025,1025,1025,1025,1025,1025,1025
</data>
 </layer>
 <layer id="3" name="objects" width="30" height="20">
  <data encoding="csv">
0,0,0,0,0,0,0,0,0,0,0,0,0,0,0,0,0,0,0,0,0,0,0,0,0,0,0,0,0,0,
0,0,0,0,0,0,0,0,0,0,0,0,0,0,0,0,0,0,0,0,0,0,0,0,0,0,0,0,0,0,
0,0,0,0,0,0,0,0,0,0,0,0,0,0,0,0,0,0,0,0,0,0,0,0,0,0,0,0,0,0,
0,0,0,0,0,0,0,0,0,0,0,0,0,0,0,0,0,0,0,0,0,0,0,0,0,0,0,0,0,0,
0,0,0,0,0,0,0,0,0,0,0,0,0,0,0,0,0,0,0,0,0,0,0,0,0,0,0,0,0,0,
0,0,0,0,0,0,0,0,0,0,0,0,0,0,0,0,0,0,0,0,0,0,0,0,0,0,0,0,0,0,
0,0,0,0,0,0,0,0,0,0,0,0,0,0,0,0,0,0,0,0,0,0,0,0,0,0,0,0,0,0,
0,0,0,0,0,0,0,0,0,0,0,0,0,0,0,0,0,0,0,0,0,0,0,0,0,0,0,0,0,0,
0,0,0,0,0,0,0,0,0,0,0,0,0,0,0,0,0,0,0,0,0,0,0,0,0,0,0,0,0,0,
0,0,0,0,0,0,0,0,0,0,0,0,0,0,0,0,0,0,0,0,0,0,0,0,0,0,0,0,0,0,
0,0,0,0,0,0,0,0,1520,0,0,0,0,0,0,0,0,0,0,0,0,0,0,0,0,0,0,0,0,0,
0,0,0,0,0,0,0,0,0,0,0,0,0,0,0,0,0,0,0,0,0,0,0,0,0,0,0,0,0,0,
0,0,0,0,0,0,0,0,0,0,0,0,0,0,0,0,0,0,0,0,0,0,0,0,0,0,0,0,0,0,
0,0,0,0,0,0,0,0,0,0,0,0,0,0,0,0,0,0,0,0,0,0,0,0,0,0,0,0,0,0,
0,0,0,0,0,0,0,0,0,0,0,0,0,0,0,0,0,0,0,0,0,0,0,0,0,0,0,0,0,0,
0,0,0,0,0,0,0,0,0,0,0,0,0,0,0,0,0,0,0,0,0,0,0,0,0,0,0,0,0,0,
0,0,0,0,0,0,0,0,0,0,0,0,0,0,0,0,0,0,0,0,0,0,0,0,0,0,0,0,0,0,
0,0,0,0,0,0,0,0,0,0,0,0,0,0,0,0,0,0,0,0,0,0,0,0,0,0,0,0,0,0,
0,0,0,0,0,0,0,0,0,0,0,0,0,0,0,0,0,0,0,0,0,0,0,0,0,0,0,0,0,0,
0,0,0,0,0,0,0,0,0,0,0,0,0,0,0,0,0,0,0,0,0,0,0,0,0,0,0,0,0,0
</data>
 </layer>
 <objectgroup id="5" name="markers">
  <object id="1" name="player_spawn" x="156.186" y="235.052">
   <point/>
  </object>
 </objectgroup>
</map>
