<?xml version="1.0" encoding="UTF-8"?>
<map version="1.10" tiledversion="1.12.2" orientation="orthogonal" renderorder="right-down" width="30" height="20" tilewidth="16" tileheight="16" infinite="0" nextlayerid="6" nextobjectid="3">
 <tileset firstgid="1" source="Kenny1-bit.tsx"/>
 <layer id="1" name="terrain" width="30" height="20">
  <properties>
   <property name="material_name" value="wood_floor"/>
  </properties>
  <data encoding="csv">
1,1,1,1,1,1,1,1,1,1,1,1,1,1,1,1,1,1,1,1,1,1,1,1,1,1,1,1,1,1,
1,1,1,1,1,1,1,1,1,1,1,1,1,1,1,1,1,1,1,1,1,1,1,1,1,1,1,1,1,1,
1,1,1,1,1,1,1,1,1,1,1,1,1,1,1,1,1,1,1,1,1,1,1,1,1,1,1,1,1,1,
1,1,1,1,1,1,1,1,1,1,1,1,1,1,1,1,1,1,1,1,1,1,1,1,1,1,1,1,1,1,
1,1,1,1,1,1,589,542,542,542,542,542,542,542,542,542,542,542,589,1,1,1,1,1,1,1,1,1,1,1,
1,1,1,1,1,1,638,638,638,638,638,638,638,638,638,638,638,638,638,1,1,1,1,1,1,1,1,1,1,1,
1,1,1,1,1,1,638,700,700,700,638,1,1,1,1,1,1,1,638,1,1,1,1,1,1,1,1,1,1,1,
1,1,1,1,1,1,638,700,700,700,638,1,1,1,6,6,6,1,638,1,1,1,1,1,1,1,1,1,1,1,
1,1,1,1,1,1,638,700,700,700,638,1,1,1,6,6,6,1,638,1,1,1,1,1,1,1,1,1,1,1,
1,1,1,1,1,1,638,700,700,700,638,1,1,1,6,6,6,1,638,1,1,1,1,1,1,1,1,1,1,1,
1,1,1,1,1,1,638,638,58,638,638,1,1,1,1,1,1,1,638,1,1,1,1,1,1,1,1,1,1,1,
1,1,1,1,1,1,638,7,58,2,6,7,1,1,1,1,1,1,638,1,1,1,1,1,1,1,1,1,1,1,
1,1,1,1,1,1,638,7,58,6,171,171,1,1,1,1,1,1,638,1,1,1,1,1,1,1,1,1,1,1,
1,1,1,1,1,1,638,7,58,6,171,171,1,1,1,1,1,1,638,1,1,1,1,1,1,1,1,1,1,1,
1,1,1,1,1,1,638,3,58,171,171,171,1,1,1,1,1,1,638,1,1,1,1,1,1,1,1,1,1,1,
1,1,1,1,1,1,589,542,542,542,542,542,542,542,542,542,542,542,589,1,1,1,1,1,1,1,1,1,1,1,
1,1,1,1,1,1,638,638,638,639,638,638,642,638,638,639,638,638,638,1,1,1,1,1,1,1,1,1,1,1,
1,1,1,1,1,1,1,1,1,1,1,1,1,1,1,1,1,1,1,1,1,1,1,1,1,1,1,1,1,1,
1,1,1,1,1,1,1,1,1,1,1,1,1,1,1,1,1,1,1,1,1,1,1,1,1,1,1,1,1,1,
1,1,1,1,1,1,1,1,1,1,1,1,1,1,1,1,1,1,1,1,1,1,1,1,1,1,1,1,1,1
</data>
 </layer>
 <layer id="3" name="objects" width="30" height="20">
  <data encoding="csv">
0,0,0,0,0,0,0,0,0,0,0,0,0,0,0,0,0,0,0,0,0,0,0,0,0,0,0,0,0,0,
0,0,0,0,0,0,0,0,0,0,0,0,0,0,0,0,0,0,0,0,0,0,0,0,0,0,0,0,0,0,
0,0,0,0,0,0,0,0,0,0,0,0,0,0,0,0,0,0,0,0,0,0,0,0,0,0,0,0,0,0,
0,0,0,0,0,0,0,0,0,0,0,0,0,0,0,0,0,0,0,0,0,0,0,0,0,0,0,0,0,0,
0,0,0,0,0,0,0,0,0,0,0,0,0,0,0,0,0,0,0,0,0,0,0,0,0,0,0,0,0,0,
0,0,0,0,0,0,0,0,0,0,0,0,0,0,0,0,0,0,0,0,0,0,0,0,0,0,0,0,0,0,
0,0,0,0,0,0,0,0,0,0,0,0,0,0,0,0,0,0,0,0,0,0,0,0,0,0,0,0,0,0,
0,0,0,0,0,0,0,0,0,0,0,0,0,0,0,0,0,0,0,0,0,0,0,0,0,0,0,0,0,0,
0,0,0,0,0,0,0,0,0,0,0,0,0,0,0,0,0,0,0,0,0,0,0,0,0,0,0,0,0,0,
0,0,0,0,0,0,0,0,0,0,0,0,0,0,0,0,0,0,0,0,0,0,0,0,0,0,0,0,0,0,
0,0,0,0,0,0,0,0,496,0,0,0,0,0,0,0,0,0,0,0,0,0,0,0,0,0,0,0,0,0,
0,0,0,0,0,0,0,0,0,0,0,0,0,0,0,0,0,0,0,0,0,0,0,0,0,0,0,0,0,0,
0,0,0,0,0,0,0,0,0,0,0,0,0,0,0,0,0,0,0,0,0,0,0,0,0,0,0,0,0,0,
0,0,0,0,0,0,0,0,0,0,0,0,0,0,0,0,0,0,0,0,0,0,0,0,0,0,0,0,0,0,
0,0,0,0,0,0,0,0,0,0,0,0,0,0,0,0,0,0,0,0,0,0,0,0,0,0,0,0,0,0,
0,0,0,0,0,0,0,0,0,0,0,0,0,0,0,0,0,0,0,0,0,0,0,0,0,0,0,0,0,0,
0,0,0,0,0,0,0,0,0,0,0,0,0,0,0,0,0,0,0,0,0,0,0,0,0,0,0,0,0,0,
0,0,0,0,0,0,0,0,0,0,0,0,0,0,0,0,0,0,0,0,0,0,0,0,0,0,0,0,0,0,
0,0,0,0,0,0,0,0,0,0,0,0,0,0,0,0,0,0,0,0,0,0,0,0,0,0,0,0,0,0,
0,0,0,0,0,0,0,0,0,0,0,0,0,0,0,0,0,0,0,0,0,0,0,0,0,0,0,0,0,0
</data>
 </layer>
 <objectgroup id="5" name="markers">
  <object id="1" name="player_spawn" x="156.186" y="235.052">
   <point/>
  </object>
 </objectgroup>
</map>
